X:647
T: "Der Tanzlustige"
N: Z1328
O: Europa, Mitteleuropa, Deutschland, Schwaben
R: Zech -, Schalks - Lied
M: 3/4
L: 1/16
K: F
 | F3GA2B2c2A2 | c2z2A2F2G4 |
F3GA2B2c2A2 | c2z2A2F2G4 |
c2A2A2c2 | B2G2G2
B2 | A2F2F2A2 | G2E2C4
F3GA2B2c2A2 | c2z2A2F2G4 |
F3GA2B2c2A2 | c2z2A2F2G4 |
c2A2A2c2 | B2G2G2z2
F3GA2B2c2A2 | c2z2A2F2G4 |
F3GA2B2c2A2 | c2z2A2F2G4 |
c2A2c2B2G2B2
A2F2A2G2E2G2
C3DE2F2z4
C3DE2F2z4

@@@ Tune index: 10405
